public/assets/icons/svg/stat/upgrade.svg

<svg fill="none" height="24" viewBox="0 0 24 24" width="24" xmlns="http://www.w3.org/2000/svg" xmlns:xlink="http://www.w3.org/1999/xlink"><mask id="a" fill="#000" height="35.3553" maskUnits="userSpaceOnUse" width="35.3553" x=".321195" y="-.095456"><path d="m.321195-.095456h35.3553v35.3553h-35.3553z" fill="#fff"/><path clip-rule="evenodd" d="m27.5448 10.8647 1.7678-4.59619-4.5962 1.76776-15.01417 15.01413-2.12132-2.1213-.70711.7071 2.82843 2.8284-4.72187 4.7219 1.41421 1.4142 4.72183-4.7219 2.8285 2.8285.7071-.7071-2.1213-2.1214z" fill="#000" fill-rule="evenodd"/></mask><path clip-rule="evenodd" d="m20.859499 5.5503461 1.506188-3.9160115-3.91602 1.5061537-12.7922613 12.7922267-1.8073912-1.807374-.6024666.602458 2.4098578 2.409832-4.0230924 4.023118 1.2049246 1.204916 4.0230584-4.023118 2.4099174 2.409918.6024581-.602458-1.8073742-1.80746z" fill="#2196f3" fill-rule="evenodd" stroke-width=".852013"/><path d="m29.3126 6.26851.9333.35897.8077-2.10002-2.1.8077zm-1.7678 4.59619.7071.7071.1501-.1501.0762-.198zm-2.8284-2.82843-.359-.93334-.1981.07618-.15.15006zm-15.01417 15.01413-.70711.7071.70711.7071.70707-.7071zm-2.12132-2.1213.7071-.7071-.7071-.7071-.70711.7071zm-.70711.7071-.70711-.7071-.7071.7071.7071.7071zm2.82843 2.8284.70707.7071.7071-.7071-.7071-.7071zm-4.72187 4.7219-.70711-.7071-.70711.7071.70711.7071zm1.41421 1.4142-.70711.7071.70711.7071.70711-.7071zm4.72183-4.7219.7071-.7071-.7071-.7071-.7071.7071zm2.8285 2.8285-.7071.7071.7071.7071.7071-.7071zm.7071-.7071.7071.7071.7071-.7071-.7071-.7071zm-2.1213-2.1214-.7072-.7071-.7071.7071.7071.7072zm15.8485-19.96927-1.7677 4.59617 1.8667.718 1.7677-4.59622zm-3.3038 3.06009 4.5962-1.76777-.718-1.86669-4.5962 1.76777zm-14.6661 14.78788 15.0142-15.01412-1.4142-1.41421-15.01418 15.01413zm-3.5355-2.1213 2.12132 2.1213 1.41418-1.4142-2.12129-2.1213zm.70711.7071.7071-.7071-1.41421-1.4142-.70711.7071zm2.82839 1.4142-2.82839-2.8284-1.41422 1.4142 2.82843 2.8284zm-4.72184 6.1361 4.72184-4.7219-1.41418-1.4142-4.72187 4.7219zm1.41422 0-1.41422-1.4142-1.41421 1.4142 1.41421 1.4142zm3.30762-4.7219-4.72184 4.7219 1.41422 1.4142 4.72182-4.7218zm4.2427 2.8285-2.8285-2.8285-1.4142 1.4143 2.8285 2.8284zm-.7071-.7071-.7071.7071 1.4142 1.4142.7071-.7071zm-2.1214-.7071 2.1214 2.1213 1.4142-1.4142-2.1213-2.1214zm15.0142-16.4284-15.0142 15.0141 1.4143 1.4143 15.0141-15.0142z" fill="#4f4f4f" mask="url(#a)" transform="matrix(.85201253 0 0 .85201253 -2.748226 -3.567274)"/></svg>

<svg width="36" height="35" viewBox="0 0 36 35" fill="none" xmlns="http://www.w3.org/2000/svg">
<mask id="path-1-outside-1" maskUnits="userSpaceOnUse" x="0.321195" y="-0.0954559" width="35.3553" height="35.3553" fill="black">
<rect fill="white" x="0.321195" y="-0.0954559" width="35.3553" height="35.3553"/>
<path fill-rule="evenodd" clip-rule="evenodd" d="M27.5448 10.8647L29.3126 6.26851L24.7164 8.03627L9.70223 23.0504L7.58091 20.9291L6.8738 21.6362L9.70223 24.4646L4.98036 29.1865L6.39457 30.6007L11.1164 25.8788L13.9449 28.7073L14.652 28.0002L12.5307 25.8788L27.5448 10.8647Z"/>
</mask>
<path fill-rule="evenodd" clip-rule="evenodd" d="M27.5448 10.8647L29.3126 6.26851L24.7164 8.03627L9.70223 23.0504L7.58091 20.9291L6.8738 21.6362L9.70223 24.4646L4.98036 29.1865L6.39457 30.6007L11.1164 25.8788L13.9449 28.7073L14.652 28.0002L12.5307 25.8788L27.5448 10.8647Z" fill="#2196F3"/>
<path d="M29.3126 6.26851L30.2459 6.62748L31.0536 4.52746L28.9536 5.33516L29.3126 6.26851ZM27.5448 10.8647L28.2519 11.5718L28.402 11.4217L28.4782 11.2237L27.5448 10.8647ZM24.7164 8.03627L24.3574 7.10293L24.1593 7.17911L24.0093 7.32917L24.7164 8.03627ZM9.70223 23.0504L8.99512 23.7575L9.70223 24.4646L10.4093 23.7575L9.70223 23.0504ZM7.58091 20.9291L8.28801 20.222L7.58091 19.5149L6.8738 20.222L7.58091 20.9291ZM6.8738 21.6362L6.16669 20.9291L5.45959 21.6362L6.16669 22.3433L6.8738 21.6362ZM9.70223 24.4646L10.4093 25.1717L11.1164 24.4646L10.4093 23.7575L9.70223 24.4646ZM4.98036 29.1865L4.27325 28.4794L3.56614 29.1865L4.27325 29.8936L4.98036 29.1865ZM6.39457 30.6007L5.68746 31.3078L6.39457 32.0149L7.10168 31.3078L6.39457 30.6007ZM11.1164 25.8788L11.8235 25.1717L11.1164 24.4646L10.4093 25.1717L11.1164 25.8788ZM13.9449 28.7073L13.2378 29.4144L13.9449 30.1215L14.652 29.4144L13.9449 28.7073ZM14.652 28.0002L15.3591 28.7073L16.0662 28.0002L15.3591 27.2931L14.652 28.0002ZM12.5307 25.8788L11.8235 25.1717L11.1164 25.8788L11.8235 26.586L12.5307 25.8788ZM28.3792 5.90953L26.6115 10.5057L28.4782 11.2237L30.2459 6.62748L28.3792 5.90953ZM25.0754 8.96962L29.6716 7.20185L28.9536 5.33516L24.3574 7.10293L25.0754 8.96962ZM10.4093 23.7575L25.4235 8.74338L24.0093 7.32917L8.99512 22.3433L10.4093 23.7575ZM6.8738 21.6362L8.99512 23.7575L10.4093 22.3433L8.28801 20.222L6.8738 21.6362ZM7.58091 22.3433L8.28801 21.6362L6.8738 20.222L6.16669 20.9291L7.58091 22.3433ZM10.4093 23.7575L7.58091 20.9291L6.16669 22.3433L8.99512 25.1717L10.4093 23.7575ZM5.68746 29.8936L10.4093 25.1717L8.99512 23.7575L4.27325 28.4794L5.68746 29.8936ZM7.10168 29.8936L5.68746 28.4794L4.27325 29.8936L5.68746 31.3078L7.10168 29.8936ZM10.4093 25.1717L5.68746 29.8936L7.10168 31.3078L11.8235 26.586L10.4093 25.1717ZM14.652 28.0002L11.8235 25.1717L10.4093 26.586L13.2378 29.4144L14.652 28.0002ZM13.9449 27.2931L13.2378 28.0002L14.652 29.4144L15.3591 28.7073L13.9449 27.2931ZM11.8235 26.586L13.9449 28.7073L15.3591 27.2931L13.2378 25.1717L11.8235 26.586ZM26.8377 10.1576L11.8235 25.1717L13.2378 26.586L28.2519 11.5718L26.8377 10.1576Z" fill="#4F4F4F" mask="url(#path-1-outside-1)"/>
</svg>
